packages/symbols/svgs/solid/bulb-solid.svg

<svg width="16" height="16" viewBox="0 0 16 16" xmlns="http://www.w3.org/2000/svg"><path fill-rule="evenodd" clip-rule="evenodd" d="M8 0c3.3 0 6 2.7 6 6 0 2.2-1.2 4.2-3 5.2V13H5v-1.8c-1.8-1-3-3-3-5.2 0-3.3 2.7-6 6-6Zm3 14c0 1.1-.9 2-2 2H7c-1.1 0-2-.9-2-2h6Z"/></svg>

<svg width="16" height="16" viewBox="0 0 16 16" fill="none" xmlns="http://www.w3.org/2000/svg">
<path fill-rule="evenodd" clip-rule="evenodd" d="M8 0C11.3 0 14 2.7 14 6C14 8.2 12.8 10.2 11 11.2V13H5V11.2C3.2 10.2 2 8.2 2 6C2 2.7 4.7 0 8 0ZM11 14C11 15.1 10.1 16 9 16H7C5.9 16 5 15.1 5 14H11Z" fill="black"/>
</svg>
